svg images/stockholm.svg

<svg width="128" height="32" viewBox="0 0 128 32" fill="none" xmlns="http://www.w3.org/2000/svg">
<path fill-rule="evenodd" clip-rule="evenodd" d="M9.59604 16.817V20.0786H4.12479C3.99063 20.0786 3.90119 20.1916 3.90119 20.3262V22.5526C3.90119 22.6431 3.99063 22.7553 4.12479 22.7553H8.02598C9.07934 22.7553 9.79729 23.4748 9.79729 24.5323V30.2222C9.79729 31.2797 9.07934 32 8.02598 32H0V28.7152H5.67249C5.82902 28.7152 5.91846 28.6263 5.91846 28.5133V26.3093C5.91846 26.1963 5.82902 26.1066 5.67249 26.1066H1.77131C0.717946 26.1066 0 25.3871 0 24.3296V18.594C0 17.5373 0.717946 16.817 1.77131 16.817H9.59604ZM23.0485 16.8174V20.1014H19.6177V31.9996H15.7165V20.1014H12.2865V16.8174H23.0485ZM35.3572 16.817C36.4106 16.817 37.1285 17.5373 37.1285 18.594V30.2222C37.1285 31.2797 36.4106 32 35.3572 32H27.5772C26.523 32 25.8059 31.2797 25.8059 30.2222V18.594C25.8059 17.5373 26.523 16.817 27.5772 16.817H35.3572ZM50.4909 16.8174C51.4556 16.8174 52.263 17.6049 52.263 18.5271V22.4408H48.3618V20.3257C48.3618 20.1911 48.2492 20.0789 48.1598 20.0789H45.3128C45.1778 20.0789 45.066 20.1911 45.066 20.3257V28.4912C45.066 28.6258 45.1778 28.7155 45.3128 28.7155H48.1598C48.2492 28.7155 48.3618 28.6258 48.3618 28.4912V26.3312H52.263V30.2674C52.263 31.2576 51.4556 31.9995 50.4909 31.9995H42.8906C41.9267 31.9995 41.164 31.2576 41.164 30.2674V18.5271C41.164 17.6049 41.9267 16.8174 42.8906 16.8174H50.4909ZM55.1186 0C55.4053 0 55.6864 0.0288421 55.9627 0.0785146V0.0745088L56.0226 0.0881287C56.053 0.0937369 56.0825 0.101749 56.1129 0.108158C56.2175 0.130591 56.3213 0.156228 56.4235 0.185871C56.4706 0.199491 56.5169 0.213111 56.5641 0.228333C56.6527 0.257175 56.7398 0.289222 56.8276 0.322871C56.8731 0.340497 56.9187 0.356521 56.9642 0.375749C57.0832 0.427023 57.2006 0.481503 57.3148 0.542392C57.3643 0.56883 57.4114 0.598474 57.4609 0.626515C57.5312 0.666573 57.6015 0.708234 57.6693 0.752298C57.7244 0.78755 57.7771 0.825205 57.8315 0.862059C57.8922 0.905322 57.9512 0.950187 58.0103 0.996655C58.063 1.03671 58.115 1.07757 58.1653 1.12004C58.23 1.17532 58.2915 1.233 58.3537 1.29229C58.3897 1.32594 58.428 1.35638 58.4632 1.39243C59.3863 2.31698 59.8479 3.53236 59.8479 4.74853H59.8519L59.8639 23.1378L63.7875 16.8174H68.1367L63.7643 23.4078L68.3163 31.9995H64.0566L61.097 26.1966L59.8639 28.1988V31.9995H55.9627V4.74853C55.9619 4.53222 55.8789 4.3143 55.7144 4.14926C55.4995 3.93294 55.248 3.9017 55.1186 3.9017C54.986 3.9017 54.7377 3.93294 54.522 4.14926L53.8121 4.8647L51.0609 7.62153L48.3121 4.8647L47.5989 4.14926C47.3841 3.93294 47.1325 3.9017 47.0024 3.9017C46.873 3.9017 46.6222 3.93294 46.4066 4.14926C46.0776 4.47934 46.0776 5.01773 46.4066 5.3454L47.1198 6.06085L49.8678 8.81847L51.0609 10.0146L52.2532 8.81847L54.6666 6.39974V11.9158L51.0609 15.5339L43.6554 8.10543C41.8122 6.25313 41.8122 3.24153 43.6554 1.39243C44.5499 0.494322 45.7374 0 47.0024 0C48.2658 0 49.4557 0.494322 50.3509 1.39243L51.0609 2.10467L51.7708 1.39243C52.6653 0.494322 53.8528 0 55.1186 0ZM74.7952 16.8174V22.6203H78.4951V16.8174H82.3963V31.9996H78.4951V25.9716H74.7952V31.9996H70.894V16.8174H74.7952ZM96.1175 16.817C97.1708 16.817 97.8888 17.5373 97.8888 18.594V30.2222C97.8888 31.2797 97.1708 32 96.1175 32H88.3382C87.2841 32 86.5669 31.2797 86.5669 30.2222V18.594C86.5669 17.5373 87.2841 16.817 88.3382 16.817H96.1175ZM105.939 16.8174V28.7155H110.759V31.9995H102.06V16.8174H105.939ZM118.023 16.8174L121.072 23.9021L123.875 16.8174H128V31.9995H124.323V23.2499L121.767 29.2779H120.242L117.665 23.4078V31.9995H114.077V16.8174H118.023ZM32.9805 20.101H29.9091C29.8189 20.101 29.7071 20.214 29.7071 20.3486V28.5133C29.7071 28.6263 29.8189 28.7152 29.9091 28.7152H32.9805C33.1147 28.7152 33.2273 28.6263 33.2273 28.5133V20.3486C33.2273 20.214 33.1147 20.101 32.9805 20.101ZM93.7408 20.101H90.6694C90.5799 20.101 90.4681 20.214 90.4681 20.3486V28.5133C90.4681 28.6263 90.5799 28.7152 90.6694 28.7152H93.7408C93.875 28.7152 93.9876 28.6263 93.9876 28.5133V20.3486C93.9876 20.214 93.875 20.101 93.7408 20.101Z" fill="white"/>
</svg>

<svg width="128" height="32" fill="none" xmlns="http://www.w3.org/2000/svg"><path fill-rule="evenodd" clip-rule="evenodd" d="M9.596 16.817v3.262H4.125c-.134 0-.224.113-.224.247v2.227c0 .09.09.202.224.202h3.901c1.053 0 1.771.72 1.771 1.777v5.69C9.797 31.28 9.08 32 8.026 32H0v-3.285h5.672c.157 0 .246-.089.246-.202V26.31c0-.113-.089-.202-.246-.202h-3.9C.717 26.107 0 25.387 0 24.33v-5.736c0-1.057.718-1.777 1.771-1.777h7.825Zm13.453 0v3.284h-3.431V32h-3.901V20.1h-3.43v-3.284h10.761Zm12.308 0c1.054 0 1.772.72 1.772 1.777v11.628c0 1.058-.718 1.778-1.772 1.778h-7.78c-1.054 0-1.771-.72-1.771-1.778V18.594c0-1.057.717-1.777 1.771-1.777h7.78Zm15.134 0c.965 0 1.772.788 1.772 1.71v3.914h-3.901v-2.115c0-.135-.113-.247-.202-.247h-2.847a.249.249 0 0 0-.247.247v8.165c0 .135.112.224.247.224h2.847c.09 0 .202-.09.202-.224v-2.16h3.901v3.936c0 .99-.807 1.733-1.772 1.733h-7.6a1.702 1.702 0 0 1-1.727-1.733v-11.74c0-.922.763-1.71 1.727-1.71h7.6ZM55.119 0c.286 0 .567.029.844.079V.075l.06.013.09.02a4.511 4.511 0 0 1 .715.215 4.677 4.677 0 0 1 .487.22c.05.026.096.055.146.084.07.04.14.081.208.125l.163.11c.06.043.12.088.178.135a3.867 3.867 0 0 1 .344.295c.036.034.074.064.11.1a4.735 4.735 0 0 1 1.384 3.357h.004l.012 18.389 3.924-6.32h4.349l-4.373 6.59 4.552 8.591h-4.26l-2.959-5.802-1.233 2.002v3.8h-3.901V4.75a.853.853 0 0 0-.249-.6.835.835 0 0 0-.595-.247.833.833 0 0 0-.597.247l-.71.716-2.751 2.757-2.749-2.757-.713-.716a.835.835 0 0 0-.597-.247c-.129 0-.38.03-.595.247a.848.848 0 0 0 0 1.196l.713.716 2.748 2.757 1.193 1.197 1.192-1.197L54.667 6.4v5.516l-3.606 3.618-7.406-7.429a4.766 4.766 0 0 1 0-6.713A4.691 4.691 0 0 1 47.002 0c1.264 0 2.454.494 3.349 1.392l.71.713.71-.713A4.691 4.691 0 0 1 55.119 0Zm19.676 16.817v5.803h3.7v-5.803h3.901V32h-3.9v-6.028h-3.7V32h-3.902V16.817h3.901Zm21.323 0c1.053 0 1.77.72 1.77 1.777v11.628c0 1.058-.717 1.778-1.77 1.778h-7.78c-1.054 0-1.771-.72-1.771-1.778V18.594c0-1.057.717-1.777 1.771-1.777h7.78Zm9.821 0v11.898h4.82V32h-8.699V16.817h3.879Zm12.084 0 3.049 7.085 2.803-7.085H128V32h-3.677v-8.75l-2.556 6.028h-1.525l-2.577-5.87v8.591h-3.588V16.818h3.946Zm-85.042 3.284h-3.072c-.09 0-.202.113-.202.248v8.164c0 .113.112.202.202.202h3.072c.134 0 .246-.089.246-.202V20.35a.25.25 0 0 0-.246-.248Zm60.76 0h-3.072c-.09 0-.2.113-.2.248v8.164c0 .113.11.202.2.202h3.072c.134 0 .247-.089.247-.202V20.35a.25.25 0 0 0-.247-.248Z" fill="#fff"/></svg>
